X: 19215
T: Isle Of Ewe, The
R: jig
M: 6/8
K: Eminor
|:EGB eBG|efg fdB|e2B cBA|GBF GEE|
BEG eBG|efg fdB|e2B cBA|GBF GEE:|
|:EFG B2G|ABc d2G|EFG B3|BcB GEE|
EFG B2G|ABc d2G|e2B cBA|GBF GEE:|

